X:1
T:Single Sailor
F:http://www.folkinfo.org/songs
B:A Dorset Book of Folk Songs, EFDSS, 1958
S:J Baker, Bere Regis
Z:H.E.D. Hammond
M:3/2     %Meter
L:1/8     %
K:G
E2 |G2 A2 (B2A2) F2 G2 |E2 E2 E6 
w:As I was walk-*ing up Lon-don street, 
D2 |G2 B2 d4 e2 d2 | c2 d2 B6 
w:I found a let-ter be-twixt my feet. 
D2 |G2 B B d4 e2 d2 |c2 d2 B6 
w:And down to the bot-tom these lines were wrote, 
E2 |G2 A2 (B2A2) F2 D2 | E2 E2 E6  |]
w:"A sin-gle sail-*or is soon for-got." 